icons/diff-renamed.svg

<svg xmlns="http://www.w3.org/2000/svg" fill="#90a4ae" viewBox="0 0 24 24"><path d="M19 3a2 2 0 0 1 2 2v14a2 2 0 0 1-2 2H5a2 2 0 0 1-2-2V5a2 2 0 0 1 2-2zm-2.3 6.35c.22-.21.22-.56 0-.77L15.42 7.3a.53.53 0 0 0-.77 0l-1 1 2.05 2.05zM7 14.94V17h2.06l6.06-6.06-2.06-2.06z"/></svg>

<!--
  - The MIT License (MIT)
  -
  - Copyright (c) 2015-2022 Elior "Mallowigi" Boukhobza
  -
  - Permission is hereby granted, free of charge, to any person obtaining a copy
  - of this software and associated documentation files (the "Software"), to deal
  - in the Software without restriction, including without limitation the rights
  - to use, copy, modify, merge, publish, distribute, sublicense, and/or sell
  - copies of the Software, and to permit persons to whom the Software is
  - furnished to do so, subject to the following conditions:
  -
  - The above copyright notice and this permission notice shall be included in all
  - copies or substantial portions of the Software.
  -
  - THE SOFTWARE IS PROVIDED "AS IS", WITHOUT WARRANTY OF ANY KIND, EXPRESS OR
  - IMPLIED, INCLUDING BUT NOT LIMITED TO THE WARRANTIES OF MERCHANTABILITY,
  - FITNESS FOR A PARTICULAR PURPOSE AND NONINFRINGEMENT. IN NO EVENT SHALL THE
  - AUTHORS OR COPYRIGHT HOLDERS BE LIABLE FOR ANY CLAIM, DAMAGES OR OTHER
  - LIABILITY, WHETHER IN AN ACTION OF CONTRACT, TORT OR OTHERWISE, ARISING FROM,
  - OUT OF OR IN CONNECTION WITH THE SOFTWARE OR THE USE OR OTHER DEALINGS IN THE
  - SOFTWARE.
  -
  -
  -->


<svg xmlns="http://www.w3.org/2000/svg" version="1.1" width="16px" height="16px" fill="#90A4AE"
     viewBox="0 0 24 24">
    <path
            d="M19,3A2,2 0 0,1 21,5V19C21,20.11 20.1,21 19,21H5A2,2 0 0,1 3,19V5A2,2 0 0,1 5,3H19M16.7,9.35C16.92,9.14 16.92,8.79 16.7,8.58L15.42,7.3C15.21,7.08 14.86,7.08 14.65,7.3L13.65,8.3L15.7,10.35L16.7,9.35M7,14.94V17H9.06L15.12,10.94L13.06,8.88L7,14.94Z" />
</svg>
